X: 21460
T: Kevin McHugh's
R: slide
M: 12/8
K: Dmajor
f2Af2Af3fef|a2f ede f2dA2g|
f2Af2Af3fef|1 a2f ede f2ab2g:|2 a2f eded3B3||
|:AFA f2d A3 A2F|DFA d2cB3B2A|BAB c2BA2dc2B|
[1ABA GFE F3 F2 B:|2 ABA GFE D3 D2 e||

